!!!!SEGMENT: pl-kk--kk-i-636--003-004_anonim--in-sabbato-sancto-responsorium-2dum.krn
!!!cenid: 18xx:4550
!!!COM: Anonim
!!!COM-rismID: pe30004985
!!!CDT:
!!!CNT:
!!!OPR: In Sabbato Sancto
!!!OTL: Responsorium 2dum
!!!OMV: 004
!!!PDT:
!!!AGN: Sacred
!!!YEC: Copyright 2022 Narodowy Instytut Fryderyka Chopina (https://polishscores.org)
!!!YEM: License CC-BY-4.0 (https://creativecommons.org/licenses/by/4.0)
!!!SMS-siglum: PL-Kk
!!!SMS-shelfmark: Kk.I.636
!!!SMS-variant:
!!!SMS-altvar:
!!!SMS-shelfwork: 003-004 M
!!!NIFC-rismSourceID: 1001216440
!!!NIFC-rismChildID: 1001216929
!!!NIFC-islandoraID: pl-kk:40786
!!!URL-pdf-islandora: https://repozytorium.nifc.pl/islandora/object/pl-kk%3A40786/datastream/PDF/view
!!!URL-scan: https://polish.musicsources.pl/pl/lokalizacje/galeria/rekopisy/7271/1 @EN{Scan on Polish Music Sources Website} @PL{Skany w portalu Dziedzictwo Muzyki Polskiej w otwartym dostępie}
!!!IIIF:
!!!ONB-nifc: UWAGA: Lamentacje i Responsoria In Sabbato Sancto na skanach: S – 15-20, A – 37-42, T – 60-66, B - 86-92. Każda Lamentacja i Responsorium to oddzielne pliki.
!!!AIN: 1 alto 1 bass 1 soprn 1 tenor
!!!key:
**kern	**text	**kern	**text	**kern	**text	**kern	**text
*part4	*part4	*part3	*part3	*part2	*part2	*part1	*part1
*staff4	*staff4	*staff3	*staff3	*staff2	*staff2	*staff1	*staff1
*I"Basso	*	*I"Tenore	*	*I"Alto	*	*I"Soprano	*
*I'B.	*	*I'T.	*	*I'A.	*	*I'S.	*
*Ibass	*	*Itenor	*	*Ialto	*	*Isoprn	*
*ICvox	*	*ICvox	*	*ICvox	*	*ICvox	*
*clefF4	*	*clefC4	*	*clefC3	*	*clefC1	*
*k[b-e-a-]	*	*k[b-e-a-]	*	*k[b-e-a-]	*	*k[b-e-a-]	*
*c:	*	*c:	*	*c:	*	*c:	*
*M4/4	*	*M4/4	*	*M4/4	*	*M4/4	*
*met(c)	*	*met(c)	*	*met(c)	*	*met(c)	*
=1	=1	=1	=1	=1	=1	=1	=1
*2\right	*	*2\right	*	*2\right	*	*	*
2C/	Je-	2e-\	Je-	2g\	Je-	4g\	Je-
*	*	*	*	*	*	*2\right	*
.	.	.	.	.	.	2cc\	-ru-
4.G\	-ru-	4.d\	-ru-	4.g\	-ru-	.	.
.	.	.	.	.	.	4bn\	-sa-
8F\	-sa-	8d\	-sa-	8g\	-sa-	.	.
=2	=2	=2	=2	=2	=2	=2	=2
2E-\	-lem	2c\	-lem,	2g\	-lem,	2cc\	-lem
2F\	su-	2c\	sur-	2f\	sur-	[2a-\	sur-
!LO:LB:g=original	!	!LO:LB:g=original	!	!LO:LB:g=original	!	!LO:LB:g=original	!
=3	=3	=3	=3	=3	=3	=3	=3
2.C/	-ge,	2.c\	-ge,	4f\	.	4a-\]	.
.	.	.	.	8e-\L	.	8g\L	.
.	.	.	.	8d\J	.	8f\J	.
.	.	.	.	4e-\	-ge	4g\	-ge
4c\	et	4e-\	et	4g\	et	[4cc\	et
=4	=4	=4	=4	=4	=4	=4	=4
2En\	e-	2d-X\	e-	[1g	e-	4cc\]	.
.	.	.	.	.	.	2b-X\	e-
4E\	-xu-	4d-\	-xu-	.	.	.	.
4E\	-e	4d-\	-e	.	.	8a-\	-xu-
.	.	.	.	.	.	8g\	-e
=5	=5	=5	=5	=5	=5	=5	=5
4F\	te	4c\	te	4g\]	.	2a-\	te
2F\	ve-	2A-\	ve-	8f\	-xu-	.	.
.	.	.	.	8en\	-e	.	.
.	.	.	.	2f\	te	[2cc\	ve-
4E-X\	-sti-	4A-\	-sti-	.	.	.	.
=6	=6	=6	=6	=6	=6	=6	=6
2.D\	-bus,	4A-\	-bus,	4.f\	ve-	4cc\]	.
.	.	4F\	ju-	.	.	8b-\L	-sti-
.	.	.	.	8f\	-sti-	8a-\J	.
.	.	4B-\	-cun-	4f\	-bus	4b-\	-bus
4D\	ju-	4B-\	-di-	4f\	ju-	4a-\	ju-
!LO:PB:g=original	!	!	!	!LO:LB:g=original	!	!LO:LB:g=original	!
=7	=7	=7	=7	=7	=7	=7	=7
4E-\	-cun-	1B-	-ta-	4e-\	-cun-	4g/	-cun-
4E-\	-di-	.	.	4B-/	-di-	4f/	-di-
2E-\	-ta-	.	.	2e-\	-ta-	2g/	-ta-
!	!	!LO:LB:g=original	!	!	!	!	!
=8	=8	=8	=8	=8	=8	=8	=8
4BB-/	-tis,	4.B-\	-tis,	4d\	-tis,	4f/	-tis,
4B-\	in-	.	.	4f\	in-	4b-\	in-
.	.	8d\	in-	.	.	.	.
4.A-\	-du-	4.d\	-du-	4.f\	-du-	4.b-\	-du-
8A-\	-e-	8c\	-e-	8f\	-e-	8cc\	-e-
=9	=9	=9	=9	=9	=9	=9	=9
4G\	-re	4Bn\	-re	2f\	-re,	4dd\	-re
4.G\	ci-	4.B\	ci-	.	.	4.dd\	ci-
.	.	.	.	8f\L	ci-	.	.
8G\	-ne-	8c\	-ne-	8e-\J	.	8cc\	-ne-
4F\	-re	4d\	-re	8f\	-ne-	4bn\	-re
.	.	.	.	8d\	-re	.	.
!	!	!	!	!LO:LB:g=original	!	!LO:LB:g=original	!
=10	=10	=10	=10	=10	=10	=10	=10
4E-\	et	4e-\	et	4.g\	et	4cc\	et
4C/	ci-	4e-\	ci-	.	.	4cc\	ci-
.	.	.	.	8g\	ci-	.	.
!LO:LB:g=original	!	!	!	!	!	!	!
4.E-\	-li-	[2c\	-li-	4.an\	-li-	4.f#X/	-li-
8E-\	-ci-	.	.	8a\	-ci-	8f#/	-ci-
=11	=11	=11	=11	=11	=11	=11	=11
2D\	-o,	4c\]	.	2d\	-o,	2g\	-o,
.	.	8Bn\L	-ci-	.	.	.	.
.	.	8An\J	.	.	.	.	.
2F\	qui-	2B\	-o,	2r	.	2dd\	qui-
!	!	!LO:LB:g=original	!	!	!	!	!
=12	=12	=12	=12	=12	=12	=12	=12
4En\	-a	2B-\	qu-	2g\	qui-	4cc\	-a
4C/	in	.	.	.	.	4cc\	in
4E-X\	te	4An\	-ia	4f\	-a	4cc\	te
4E-\	oc-	4F/	in	4f\	in	4cc\	oc-
=13	=13	=13	=13	=13	=13	=13	=13
4D\	-cis	2.A-X\	te	2f\	te,	4b-\	-ci-
4BB-/	-us,	.	.	.	.	4b-\	-sus
2D-X\	oc-	.	.	2f\	oc-	2bn\	est
.	.	8G/L	oc.-	.	.	.	.
.	.	8F/J	.	.	.	.	.
!LO:LB:g=original	!	!	!	!LO:LB:g=original	!	!LO:LB:g=original	!
=14	=14	=14	=14	=14	=14	=14	=14
2C/	-cis-	2.G/	-ci-	2.en\	-ci-	2cc\	Sal-
2BB-/	-us	.	.	.	.	2g\	-va-
.	.	4G/	-sus	4e\	-sus	.	.
=15	=15	=15	=15	=15	=15	=15	=15
4AA-/	est	4C/	est	(4f\	est	4a-\	-tor
4C/	Sal-	4c\	Sal-	4e-\)	.	4g\	Sal-
4F\	-va-	4c\	-va-	(4f\	Sal-	4a-\	-va-
4En\	-tor	4c\	-tor	[4g\)	.	4cc\	-tor
=16	=16	=16	=16	=16	=16	=16	=16
2.F\	I-	2.c\	I-	4g\]	-va-	[1a-	I-
.	.	.	.	8f\L	-tor	.	.
.	.	.	.	8en\J	.	.	.
.	.	.	.	[2f\	I-	.	.
4F\	-sra-	4c\	-sra-	.	.	.	.
!	!	!LO:LB:g=original	!	!	!	!	!
=17	=17	=17	=17	=17	=17	=17	=17
1C	-el	1c	-el	4f\]	.	4a-\]	.
.	.	.	.	8en\L	.	8g/L	-sra-
.	.	.	.	8d\J	.	8f/J	.
.	.	.	.	2e\	-sra-	2g\	-el.
!	!	!	!	!LO:LB:g=original	!	!	!
=18	=18	=18	=18	=18	=18	=18	=18
1C	.	1c	.	1en	-el	1g	.
!	!	!	!	!	!	!LO:PB:g=original	!
!LO:LB:g=original	!	!	!	!	!	!LO:TX:b:t=Volti Subitto&colon;	!
=19||	=19||	=19||	=19||	=19||	=19||	=19||	=19||
*M4/4	*	*M4/4	*	*M4/4	*	*M4/4	*
*met(c)	*	*met(c)	*	*met(c)	*	*met(c)	*
!LO:TX:b:t=17.	!	!LO:TX:a:t=17.	!	!LO:TX:a:t=3	!	!LO:TX:a:t=Solo.	!
00r	.	00r	.	0r	.	4b-\	De-
.	.	.	.	.	.	4e-/	-duc
.	.	.	.	.	.	8cc\L	qua-
.	.	.	.	.	.	8a-\J	.
.	.	.	.	.	.	8ee-\	-si
.	.	.	.	.	.	16dd\LL	tor-
.	.	.	.	.	.	16cc\JJ	.
=20	=20	=20	=20	=20	=20	=20	=20
.	.	.	.	.	.	8.b-\L	-ren-
.	.	.	.	.	.	32cc\LL	.
.	.	.	.	.	.	32dd\JJ	.
.	.	.	.	.	.	8ee-\J	.
.	.	.	.	.	.	8g\	-tem
.	.	.	.	.	.	8qb-/	.
.	.	.	.	.	.	4.a-\	la-
.	.	.	.	.	.	8a-\	-cry-
!	!	!	!	!	!	!LO:LB:g=original	!
=21	=21	=21	=21	=21	=21	=21	=21
.	.	.	.	1r	.	4g\	-mas
.	.	.	.	.	.	4cc\	per
.	.	.	.	.	.	4an\	di-
.	.	.	.	.	.	[4b-\	-em
=22	=22	=22	=22	=22	=22	=22	=22
!	!	!	!	!LO:TX:a:t=Solo.	!	!	!
.	.	.	.	2r	.	8b-\]	.
.	.	.	.	.	.	16an\LL	et
.	.	.	.	.	.	16g\JJ	.
.	.	.	.	.	.	4a\	noc-
.	.	.	.	4f\	de-	4b-\	-tem,
.	.	.	.	4B-/	-duc	4r	.
=23	=23	=23	=23	=23	=23	=23	=23
!	!	!	!	!	!	!LO:TX:a:t=2.	!
00r	.	00r	.	8g\L	qua-	0r	.
.	.	.	.	8e-\J	.	.	.
.	.	.	.	8b-\	-si	.	.
.	.	.	.	16an\LL	tor-	.	.
.	.	.	.	16g\JJ	.	.	.
.	.	.	.	8.f\L	-re-	.	.
.	.	.	.	32g\LL	.	.	.
.	.	.	.	32an\JJ	.	.	.
.	.	.	.	8b-\J	.	.	.
.	.	.	.	8d\	-tem	.	.
!	!	!	!	!LO:LB:g=original	!	!	!
=24	=24	=24	=24	=24	=24	=24	=24
.	.	.	.	8qf/	.	.	.
.	.	.	.	4.e-\	la-	.	.
.	.	.	.	8e-\	-cry-	.	.
.	.	.	.	4d\	-mas	.	.
.	.	.	.	4g\	per	.	.
=25	=25	=25	=25	=25	=25	=25	=25
.	.	.	.	4en\	di-	2r	.
.	.	.	.	4.f\	-em	.	.
.	.	.	.	.	.	4r	.
.	.	.	.	16e\LL	et	.	.
.	.	.	.	16d\JJ	.	.	.
.	.	.	.	4e\	no-	[4b-\	et
!	!	!	!	!	!	!LO:LB:g=original	!
=26	=26	=26	=26	=26	=26	=26	=26
.	.	.	.	4f\	-ctem,	4b-\]	.
.	.	.	.	2f\	et	4a-\	non
.	.	.	.	.	.	4g\	ta-
.	.	.	.	4e-\	non	[4cc\	.
=27	=27	=27	=27	=27	=27	=27	=27
00r	.	00r	.	4d\	ta-	4cc\]	.
.	.	.	.	2g\	.	4b-\	.
.	.	.	.	.	.	4a-\	.
.	.	.	.	4f\	-ce-	4a-\	-ce-
!	!	!	!	!LO:PB:g=original	!	!	!
=28	=28	=28	=28	=28	=28	=28	=28
.	.	.	.	4e-\	-at,	4g\	-at,
.	.	.	.	4g\	pu-	2ee-\	non
.	.	.	.	[2f\	-pil-	.	.
.	.	.	.	.	.	[4dd\	.
=29	=29	=29	=29	=29	=29	=29	=29
.	.	.	.	4f\]	.	4dd\]	ta-
.	.	.	.	8e-\L	-la	8cc\L	.
.	.	.	.	8d\J	.	8bn\J	.
!	!	!	!	!	!	!LO:LB:g=original	!
.	.	.	.	4.e-\	o-	4.cc\	.
.	.	.	.	8e-\	-cu-	8cc\	-ce-
=30	=30	=30	=30	=30	=30	=30	=30
.	.	.	.	2d\	-lis,	4bn\	-at
.	.	.	.	.	.	4g\	pu-
.	.	.	.	4r	.	4.cc\	-pil-
.	.	.	.	4c\	non	.	.
.	.	.	.	.	.	8b-X\	-la
=31	=31	=31	=31	=31	=31	=31	=31
00r	.	00r	.	4f\	ta-	4a-\	o-
.	.	.	.	8e-\L	-ce-	8g/L	-cu-
.	.	.	.	8d\J	.	8f/J	.
.	.	.	.	4e-\	-at	2g\	-li
.	.	.	.	4e-\	pu-	.	.
!	!	!	!	!LO:LB:g=original	!	!	!
=32	=32	=32	=32	=32	=32	=32	=32
.	.	.	.	4e-\	-pil-	4f/	o-
.	.	.	.	4d\	-la	4.b-\	.
.	.	.	.	4e-\	o-	.	.
.	.	.	.	.	.	8a-\	-cu-
.	.	.	.	4e-\	.	4a-\	-li
!	!	!	!	!	!	!LO:LB:g=original	!
=33	=33	=33	=33	=33	=33	=33	=33
.	.	.	.	4.B-/	.	4a-\	o-
.	.	.	.	.	.	8g/L	.
.	.	.	.	16c/LL	-cu-	8f/J	.
.	.	.	.	16d/JJ	.	.	.
.	.	.	.	4.e-\	-li	4.g\	-cu-
.	.	.	.	8f\	.	8a-\	-li
=34	=34	=34	=34	=34	=34	=34	=34
.	.	.	.	2e-\	tu-	2g/	tu-
.	.	.	.	2d\	.	2f/	.
=35	=35	=35	=35	=35	=35	=35	=35
1r	.	1r	.	1e-	-i.	1e-	-i,
=36||	=36||	=36||	=36||	=36||	=36||	=36||	=36||
*M4/4	*	*M4/4	*	*M4/4	*	*M4/4	*
*met(c)	*	*met(c)	*	*met(c)	*	*met(c)	*
!LO:TX:a:t=1	!	!LO:TX:a:t=2	!	!LO:TX:a:t=1	!	!LO:TX:a:t=tutti	!
1r	.	0r	.	1r	.	2cc\	qui-
.	.	.	.	.	.	4bn\	-a
.	.	.	.	.	.	4g\	in
!	!	!	!	!LO:LB:g=original	!	!LO:LB:g=original	!
=37	=37	=37	=37	=37	=37	=37	=37
2r	.	.	.	2g\	qu-	2dd\	te
2c\	qui-	.	.	4e-\	-ia	2ee-\	oc-
.	.	.	.	4c\	in	.	.
=38	=38	=38	=38	=38	=38	=38	=38
4Bn\	-a	2r	.	4g\	te,	2dd\	-cis-
4G\	in	.	.	4g\	oc-	.	.
4B-X\	te	2g\	qui-	2en\	-ci-	2cc\	-us
4B-\	oc-	.	.	.	.	.	.
!LO:LB:g=original	!	!	!	!	!	!	!
=39	=39	=39	=39	=39	=39	=39	=39
4An\	-cis-	4f\	-a	2f\	-sus,	2cc\	est
4F\	-us	4f\	in	.	.	.	.
2A-X\	oc-	4e-\	te	2f#X\	oc-	2cc\	oc-
.	.	8d\L	oc-	.	.	.	.
.	.	8c\J	.	.	.	.	.
!	!	!LO:PB:g=original	!	!	!	!	!
=40	=40	=40	=40	=40	=40	=40	=40
2G\	-cis-	2.d\	-ci-	2.g\	-cis-	2.bn\	-cis-
2F\	-us	.	.	.	.	.	.
.	.	4d\	-sus	4g\	-sus	4b\	-us
=41	=41	=41	=41	=41	=41	=41	=41
4E-\	est	4c\	est	4g\	est	4cc\	est
4En\	Sal-	4c\	Sal-	4g\	Sal-	4b-X\	Sal-
4F\	-va-	4c\	-va-	4f\	-va-	4a-\	-va-
[4G\	-tor	4c\	-tor	4en\	-tor	4g\	-tor
!	!	!	!	!LO:LB:g=original	!	!LO:LB:g=original	!
=42	=42	=42	=42	=42	=42	=42	=42
4G\]	.	2.c\	I-	1f	I-	1a-	I-
8F\L	.	.	.	.	.	.	.
8En\J	.	.	.	.	.	.	.
4.F\	I-	.	.	.	.	.	.
.	.	4c\	-sra-	.	.	.	.
8F\	-sra-	.	.	.	.	.	.
!LO:LB:g=original	!	!	!	!	!	!	!
=43	=43	=43	=43	=43	=43	=43	=43
1C	-el	1c	-el.	4f\	.	4a-\	.
.	.	.	.	8en\L	.	8g/L	-sra-
.	.	.	.	8d\J	.	8f/J	.
.	.	.	.	2e\	-sra-	2g\	-el.
=44	=44	=44	=44	=44	=44	=44	=44
1C	.	1c	.	1en	-el.	1g	.
==	==	==	==	==	==	==	==
*-	*-	*-	*-	*-	*-	*-	*-
!!!system-decoration: [(s1,s2,s3,s4)]
!!!ENC: Berenika Jozajtis
!!!END: 2023-11-18
!!!ENC: Leszek Kubiak
!!!END: 2024-06-12
